libcamera-0.0.2/src/ipa/raspberrypi/data/ar1335.json
{
    "version": 2.0,
    "target": "bcm2835",
    "algorithms": [
        {
            "rpi.black_level":
            {
                "black_level": 40
            }
        },
        {
            "rpi.dpc": { }
        },
        {
            "rpi.lux":
            {
                "reference_shutter_speed": 21663,
                "reference_gain": 1.0,
                "reference_aperture": 1.0,
                "reference_lux": 987,
                "reference_Y": 8961
            }
        },
        {
            "rpi.noise":
            {
                "reference_constant": 0,
                "reference_slope": 4.25
            }
        },
        {
            "rpi.awb":
            {
                "priors": [
                    {
                        "lux": 0,
                        "prior":
                        [
                            2000, 1.0,
                            3000, 0.0,
                            13000, 0.0
                        ]
                    },
                    {
                        "lux": 800,
                        "prior":
                        [
                            2000, 0.0,
                            6000, 2.0,
                            13000, 2.0
                        ]
                    },
                    {
                        "lux": 1500,
                        "prior":
                        [
                            2000, 0.0,
                            4000, 1.0,
                            6000, 6.0,
                            6500, 7.0,
                            7000, 1.0,
                            13000, 1.0
                        ]
                    }
                ],
                "modes":
                {
                    "auto":
                    {
                        "lo": 2500,
                        "hi": 8000
                    },
                    "incandescent":
                    {
                        "lo": 2500,
                        "hi": 3000
                    },
                    "tungsten":
                    {
                        "lo": 3000,
                        "hi": 3500
                    },
                    "fluorescent":
                    {
                        "lo": 4000,
                        "hi": 4700
                    },
                    "indoor":
                    {
                        "lo": 3000,
                        "hi": 5000
                    },
                    "daylight":
                    {
                        "lo": 5500,
                        "hi": 6500
                    },
                    "cloudy":
                    {
                        "lo": 7000,
                        "hi": 8600
                    }
                },
                "bayes": 0,
                "ct_curve":
                [
                    2500.0, 1.0289, 0.4503,
                    2803.0, 0.9428, 0.5108,
                    2914.0, 0.9406, 0.5127,
                    3605.0, 0.8261, 0.6249,
                    4540.0, 0.7331, 0.7533,
                    5699.0, 0.6715, 0.8627,
                    8625.0, 0.6081, 1.0012
                ],
                "sensitivity_r": 1.05,
                "sensitivity_b": 1.05,
                "transverse_pos": 0.0321,
                "transverse_neg": 0.04313
            }
        },
        {
            "rpi.agc":
            {
                "metering_modes":
                {
                    "centre-weighted":
                    {
                        "weights": [ 3, 3, 3, 2, 2, 2, 2, 1, 1, 1, 1, 0, 0, 0, 0 ]
                    },
                    "spot":
                    {
                        "weights": [ 2, 1, 1, 0, 0, 0, 0, 0, 0, 0, 0, 0, 0, 0, 0 ]
                    },
                    "matrix":
                    {
                        "weights": [ 1, 1, 1, 1, 1, 1, 1, 1, 1, 1, 1, 1, 1, 1, 1 ]
                    }
                },
                "exposure_modes":
                {
                    "normal":
                    {
                        "shutter": [ 100, 10000, 30000, 60000, 66666 ],
                        "gain": [ 1.0, 2.0, 4.0, 6.0, 8.0 ]
                    },
                    "short":
                    {
                        "shutter": [ 100, 5000, 10000, 20000, 33333 ],
                        "gain": [ 1.0, 2.0, 4.0, 6.0, 8.0 ]
                    },
                    "long":
                    {
                        "shutter": [ 100, 10000, 30000, 60000, 120000 ],
                        "gain": [ 1.0, 2.0, 4.0, 6.0, 12.0 ]
                    }
                },
                "constraint_modes":
                {
                    "normal": [
                        {
                            "bound": "LOWER",
                            "q_lo": 0.98,
                            "q_hi": 1.0,
                            "y_target":
                            [
                                0, 0.5,
                                1000, 0.5
                            ]
                        }
                    ],
                    "highlight": [
                        {
                            "bound": "LOWER",
                            "q_lo": 0.98,
                            "q_hi": 1.0,
                            "y_target":
                            [
                                0, 0.5,
                                1000, 0.5
                            ]
                        },
                        {
                            "bound": "UPPER",
                            "q_lo": 0.98,
                            "q_hi": 1.0,
                            "y_target":
                            [
                                0, 0.8,
                                1000, 0.8
                            ]
                        }
                    ],
                    "shadows": [
                        {
                            "bound": "LOWER",
                            "q_lo": 0.0,
                            "q_hi": 0.5,
                            "y_target":
                            [
                                0, 0.17,
                                1000, 0.17
                            ]
                        }
                    ]
                },
                "y_target":
                [
                    0, 0.16,
                    1000, 0.165,
                    10000, 0.17
                ],
                "base_ev": 1.25,
                "fast_reduce_threshold": 0.6
            }
        },
        {
            "rpi.contrast":
            {
                "ce_enable": 1,
                "gamma_curve":
                [
                    0, 0,
                    1024, 5040,
                    2048, 9338,
                    3072, 12356,
                    4096, 15312,
                    5120, 18051,
                    6144, 20790,
                    7168, 23193,
                    8192, 25744,
                    9216, 27942,
                    10240, 30035,
                    11264, 32005,
                    12288, 33975,
                    13312, 35815,
                    14336, 37600,
                    15360, 39168,
                    16384, 40642,
                    18432, 43379,
                    20480, 45749,
                    22528, 47753,
                    24576, 49621,
                    26624, 51253,
                    28672, 52698,
                    30720, 53796,
                    32768, 54876,
                    36864, 57012,
                    40960, 58656,
                    45056, 59954,
                    49152, 61183,
                    53248, 62355,
                    57344, 63419,
                    61440, 64476,
                    65535, 65535
                ]
            }
        },
        {
            "rpi.ccm":
            {
                "ccms": [
                    {
                        "ct": 2500,
                        "ccm":
                        [
                            1.70741, -0.05307, -0.65433,
                            -0.62822, 1.68836, -0.06014,
                            -0.04452, -1.87628, 2.92079
                        ]
                    },
                    {
                        "ct": 2803,
                        "ccm":
                        [
                            1.74383, -0.18731, -0.55652,
                            -0.56491, 1.67772, -0.11281,
                            -0.01522, -1.60635, 2.62157
                        ]
                    },
                    {
                        "ct": 2912,
                        "ccm":
                        [
                            1.75215, -0.22221, -0.52995,
                            -0.54568, 1.63522, -0.08954,
                            0.02633, -1.56997, 2.54364
                        ]
                    },
                    {
                        "ct": 2914,
                        "ccm":
                        [
                            1.72423, -0.28939, -0.43484,
                            -0.55188, 1.62925, -0.07737,
                            0.01959, -1.28661, 2.26702
                        ]
                    },
                    {
                        "ct": 3605,
                        "ccm":
                        [
                            1.80381, -0.43646, -0.36735,
                            -0.46505, 1.56814, -0.10309,
                            0.00929, -1.00424, 1.99495
                        ]
                    },
                    {
                        "ct": 4540,
                        "ccm":
                        [
                            1.85263, -0.46545, -0.38719,
                            -0.44136, 1.68443, -0.24307,
                            0.04108, -0.85599, 1.81491
                        ]
                    },
                    {
                        "ct": 5699,
                        "ccm":
                        [
                            1.98595, -0.63542, -0.35054,
                            -0.34623, 1.54146, -0.19522,
                            0.00411, -0.70936, 1.70525
                        ]
                    },
                    {
                        "ct": 8625,
                        "ccm":
                        [
                            2.21637, -0.56663, -0.64974,
                            -0.41133, 1.96625, -0.55492,
                            -0.02307, -0.83529, 1.85837
                        ]
                    }
                ]
            }
        },
        {
            "rpi.sharpen": { }
        }
    ]
}
